!!!!SEGMENT:025_1-6-1d-BH-003.krn
!!!COM: F. Chopin
!!!OTL: Etude 3me.
!!!OPS: Op. 25
!!!OPR: Douze Etudes pour le Piano
!!!OCL: Breitkopf & Härtel
!!!NIFC-rismID: 1001014794
!!!OMD: Allegro.
!!!OMD: ([quarter] = 120.)
!!!system-decoration: {(s1,s2)}
**kern	**kern	**dynam
*part1	*part1	*part1
*staff2	*staff1	*
*clefF4	*clefG2	*
*k[b-]	*k[b-]	*
*kcancel	*kcancel	*
*M3/4	*M3/4	*
*	*	*
!	!LO:TX:i:t=leggiero.	!
4r	(>4cc	.
=1	=1	=1
*^	*^	*
*ped	*	*	*	*
(>16ALL	8CL	16ddKL	8fL	.
16FJJ	.	8.ccJ	.	.
*Xped	*	*	*	*
8rcyy	8FFJ)	.	8ffJ)	.
*ped	*	*	*	*
(>16ALL	8CL	(16gKL	8cL	.
16FJJ	.	8.fJ	.	.
*Xped	*	*	*	*
8rByy	8FFJ)	.	8ccJ)	.
*ped	*	*	*	*
(>16ALL	8CL	(>16ddKL	8fL	.
16FJJ	.	8.ccJ	.	.
*Xped	*	*	*	*
8rAyy	8FFJ)	.	8ffJ)	.
=2	=2	=2	=2	=2
*ped	*	*	*	*
(>16B-LL	8CL	(>16ddKL	8gL	.
16EJJ	.	8.ccJ	.	.
*Xped	*	*	*	*
8rAyy	8FFJ)	.	8ggJ)	.
*ped	*	*	*	*
(>16B-LL	8CL	(>16aKL	8cL	.
16EJJ	.	8.gJ	.	.
*Xped	*	*	*	*
8rGyy	8FFJ)	.	8ccJ)	.
*ped	*	*	*	*
(>16B-LL	8CL	(>16ddKL	8gL	.
16EJJ	.	8.ccJ	.	.
*Xped	*	*	*	*
8rAyy	8FFJ)	.	8ggJ)	.
=3	=3	=3	=3	=3
*ped	*	*	*	*
(>16ALL	8CL	(>16ddKL	8aL	.
16FJJ	.	8.ccJ	.	.
8rAyy	8FFJ)	.	8aaJ)	.
(>16ALL	8DL	(>16ddKL	8fL	.
16FJJ	.	8.ccJ	.	.
*Xped	*	*	*	*
8rAyy	8FFJ)	.	8ffJ)	.
*ped	*	*	*	*
(>16BnLL	8DL^>	(>16aaKL	8ddL	.
16FJJ	.	8.ggJ	.	.
*Xped	*	*	*	*
8rAyy	8GGJ)	.	8dddJ)	.
=4	=4	=4	=4	=4
!!linebreak:original
*ped	*	*	*	*
(>16eLL	8GL	(>16ddKL	8gL	.
16B-XJJ	.	8.ccJ	.	.
8rAyy	8CJ)	.	8ggJ)	.
*clefG2	*	*	*	*
(>16b-LL	8cL	(>16aaKL	8ccL	.
16eJJ	.	8.ggJ	.	.
8rddyy	8GJ)	.	8cccJ)	.
*	*	*8va	*8va	*
(>16eeLL	8gL	(>16aaaKL	8cccL	.
16b-JJ	.	8.gggJ	.	.
*Xped	*	*	*	*
8reeyy	8cJ)	.	8ccccJ)	.
*	*	*X8vay	*X8va	*
*clefF4	*	*	*	*
=5	=5	=5	=5	=5
!	!	!LO:TX:a:i:t=loco.	!	!
(>16ALL	8CL	(>16ddKL	8fL	.
16FJJ	.	8.ccJ	.	.
8rFyy	8FFJ)	.	8ffJ)	.
(>16ALL	8CL	(>16gKL	8cL	.
16FJJ	.	8.fJ	.	.
8ryy	8FFJ)	.	8ccJ)	.
(>16ALL	8CL	(>16ddKL	8fL	.
16FJJ	.	8.ccJ	.	.
8rFyy	8FFJ)	.	8ffJ)	.
=6	=6	=6	=6	=6
(>16B-LL	8CL	(>16ddKL	8gL	.
16EJJ	.	8.ccJ	.	.
8rFyy	8FFJ)	.	8ggJ)	.
(>16B-LL	8CL	(>16aKL	8cL	.
16EJJ	.	8.gJ	.	.
8ryy	8FFJ)	.	8ccJ)	.
(>16B-LL	8CL	(>16ddKL	8gL	.
16EJJ	.	8.ccJ	.	.
8ryy	8FFJ)	.	8ggJ)	.
=7	=7	=7	=7	=7
!!linebreak:original
*ped	*	*	*	*
(>16ALL	8CL	8a\L	(>/16ddKL	.
16FJJ	.	.	8.ccJ	.
*Xped	*	*	*	*
8ryy	8FFJ)	8aaJ)	.	.
*ped	*	*	*	*
(>16BnLL	8DL	8a\L	(>16ee/KL	.
16FJJ	.	.	8.ddJ	.
*Xped	*	*	*	*
8rByy	8GGJ)	8aaJ)	.	.
*ped	*	*	*	*
(>16eLL	8GL	8g\L	(>16dd/KL	.
16B-XJJ	.	.	8.ccJ	.
*Xped	*	*	*	*
8rGyy	8CJ)	8ggJ)	.	.
=8	=8	=8	=8	=8
*ped	*	*	*	*
(>16ALL	8CL	(>16ddKL	8fL	.
16FJJ	.	8.ccJ	.	.
8rGyy	8FFJ)	.	8ffJ)	.
*clefG2	*	*	*	*
*	*	*8va	*8va	*
(>16aLL	8cL	(>16dddKL	8ffL	.
16fJJ	.	8.cccJ	.	.
8ryy	8FJ)	.	8fffJ)	.
(>16aaLL	8ccL	(>16ddddKL	8fffL	.
16ffJJ	.	8.ccccJ	.	.
*Xped	*	*	*	*
8ryy	8fJ)	.	8ffffJ)	.
*	*	*X8vay	*X8va	*
*	*	*v	*v	*
*clefF4	*	*	*
=9	=9	=9	=9
*	*	*^	*
*	*	*	*^	*
!	!	!LO:TX:a:i:t=loco.	!	!	!
(>16ALL	8CL	(>32ddLLL	16.ryy	8f\L	.
.	.	32cc	.	.	.
16FJJ	.	32dd	.	.	.
.	.	32ccJJJ	8cc	.	.
8rGyy	8FFJ)	8raaayy	.	8ff\J)	.
.	.	.	8ryy	.	.
(>16ALL	8CL	(>32gLLL	.	8c\L	.
.	.	32f	.	.	.
16FJJ	.	32g	.	.	.
.	.	32fJJJ	8f	.	.
8rByy	8FFJ)	8raaayy	.	8cc\J)	.
.	.	.	8ryy	.	.
(>16ALL	8CL	(>32dd/LLL	.	8fL	.
.	.	32cc	.	.	.
16FJJ	.	32dd	.	.	.
.	.	32ccJJJ	8cc	.	.
8ryy	8FFJ)	8raaayy	.	8ff\J)	.
.	.	.	32ryy	.	.
=10	=10	=10	=10	=10	=10
!!linebreak:original
(>16B-LL	8CL	(>32ddLLL	16.ryy	8g\L	.
.	.	32cc	.	.	.
16EJJ	.	32dd	.	.	.
.	.	32ccJJJ	8cc	.	.
8ryy	8FFJ)	8ryy	.	8gg\J)	.
.	.	.	8ryy	.	.
(>16B-LL	8CL	(>32aLLL	.	8cL	.
.	.	32g	.	.	.
16EJJ	.	32a	.	.	.
.	.	32gJJJ	8g	.	.
8ryy	8FFJ)	8ryy	.	8cc\J)	.
.	.	.	8ryy	.	.
(>16B-LL	8CL	(>32ddLLL	.	8g\L	.
.	.	32cc	.	.	.
16EJJ	.	32dd	.	.	.
.	.	32ccJJJ	8ccJ	.	.
8ryy	8FFJ)	8ryy	.	8gg\J)	.
.	.	.	32ryy	.	.
=11	=11	=11	=11	=11	=11
(>16ALL	8CL	(>32ddLLL	8aL	16.ryy	.
.	.	32cc	.	.	.
16FJJ	.	32dd	.	.	.
.	.	32ccJJJ	.	8cc\	.
8rcyy	8FFJ)	8rbbbyy	8aaJ)	.	.
.	.	.	.	8ryy	.
(>16ALL	8DL	(>32dd/LLL	8f\L	.	.
.	.	32cc	.	.	.
16FJJ	.	32dd	.	.	.
.	.	32ccJJJ	.	8cc\J	.
8rdyy	8FFJ)	8rffyy	8ffJ)	.	.
.	.	.	.	8ryy	.
(>16BnLL	8DL	(>32aa/LLL)	8dd\L	.	.
.	.	32gg	.	.	.
16FJJ	.	32aa	.	.	.
.	.	32ggJJJ	.	8gg\J	.
.	.	.	.	.	.
8rByy	8GGJ)	8rffffyy	8dddJ)	.	.
.	.	.	.	32ryy	.
=12	=12	=12	=12	=12	=12
!!linebreak:original
(>16eLL	8GL	(>32ddLLL	16.ryy	8g\L	.
.	.	32cc	.	.	.
16B-XJJ	.	32dd	.	.	.
.	.	32ccJJJ	8cc	.	.
8ryy	8CJ)	8ryy	.	8gg\J)	.
.	.	.	8ryy	.	.
*clefG2	*	*	*	*	*
(>16b-LL	8cL	(>32aaLLL	.	8ccL	.
.	.	32gg	.	.	.
16eJJ	.	32aa	.	.	.
.	.	32ggJJJ	8gg	.	.
8ryy	8GJ)	8ryy	.	8ccc\J)	.
.	.	.	8ryy	.	.
*	*	*8va	*8va	*8va	*
(>16eeLL	8gL	(>32aaaLLL	.	8ccc\L	.
.	.	32ggg	.	.	.
16b-JJ	.	32aaa	.	.	.
.	.	32gggJJJ	8gggJ	.	.
8ryy	8cJ)	8ryy	.	8cccc\J)	.
.	.	.	32ryy	.	.
*	*	*X8va	*X8va	*X8va	*
*clefF4	*	*	*	*	*
=13	=13	=13	=13	=13	=13
!	!	!LO:TX:a:i:t=loco.	!	!	!
(>16ALL	8CL	(>32ddLLL	16.ryy	8f\L	.
.	.	32cc	.	.	.
16FJJ	.	32dd	.	.	.
.	.	32ccJJJ	8cc	.	.
8ryy	8FFJ)	8ryy	.	8ff\J)	.
.	.	.	8ryy	.	.
(>16ALL	8CL	(>32gLLL	.	8cL	.
.	.	32f	.	.	.
16FJJ	.	32g	.	.	.
.	.	32fJJJ	8f	.	.
8ryy	8FFJ)	8ryy	.	8cc\J)	.
.	.	.	8ryy	.	.
(>16ALL	8CL	(>32ddLLL	.	8f\L	.
.	.	32cc	.	.	.
16FJJ	.	32dd	.	.	.
.	.	32ccJJJ	8ccJ	.	.
8ryy	8FFJ)	8ryy	.	8ff\J)	.
.	.	.	32ryy	.	.
=14	=14	=14	=14	=14	=14
!!pagebreak:original
(>16B-LL	8CL	(>32ddLLL	16.ryy	8g\L	.
.	.	32cc	.	.	.
16EJJ	.	32dd	.	.	.
.	.	32ccJJJ	8cc	.	.
8ryy	8FFJ)	8ryy	.	8gg\J)	.
.	.	.	8ryy	.	.
(>16B-LL	8CL	(>32aLLL	.	8cL	.
.	.	32g	.	.	.
16EJJ	.	32a	.	.	.
.	.	32gJJJ	8g	.	.
8ryy	8FFJ)	8ryy	.	8cc\J)	.
.	.	.	8ryy	.	.
(>16B-LL	8CL	(>32ddLLL	.	8g\L	.
.	.	32cc	.	.	.
16EJJ	.	32dd	.	.	.
.	.	32ccJJJ	8ccJ	.	.
8ryy	8FFJ)	8ryy	.	8gg\J)	.
.	.	.	32ryy	.	.
=15	=15	=15	=15	=15	=15
(>16ALL	8CL	(>32ddLLL	8aL	16.ryy	.
.	.	32cc	.	.	.
16FJJ	.	32dd	.	.	.
.	.	32ccJJJ	.	8cc\	.
8rcyy	8FFJ)	8rbbbyy	8aaJ)	.	.
.	.	.	.	8ryy	.
(>16BLL	8DL	(>32ee/LLL	8a\L	.	.
.	.	32dd	.	.	.
16FJJ	.	32ee	.	.	.
.	.	32ddJJJ	.	8dd\J	.
8rdyy	8GGJ)	8rffyy	8aaJ)	.	.
.	.	.	.	8ryy	.
(>16B-LL	8CL	(>32dd/LLL)	8g\L	.	.
.	.	32cc	.	.	.
16EJJ	.	32dd	.	.	.
.	.	32ccJJJ	.	8cc\J	.
.	.	.	.	.	.
8rByy	8CCJ)	8rffffyy	8ggJ)	.	.
.	.	.	.	32ryy	.
=16	=16	=16	=16	=16	=16
!!linebreak:original
(>16ALL	8CL	(>32ddLLL	16.ryy	8f\L	.
.	.	32cc	.	.	.
16FJJ	.	32dd	.	.	.
.	.	32ccJJJ	8cc	.	.
8ryy	8FFJ)	8ryy	.	8ff\J)	.
.	.	.	8ryy	.	.
*clefG2	*	*	*	*	*
*	*	*8va	*8va	*8va	*
(>16aLL	8cL	(>32dddLLL	.	8ffL	.
.	.	32ccc	.	.	.
16fJJ	.	32ddd	.	.	.
.	.	32cccJJJ	8ccc	.	.
8ryy	8FJ)	8ryy	.	8fff\J)	.
.	.	.	8ryy	.	.
(>16aaLL	8ccL	(>32ddddLLL	.	8fff\L	.
.	.	32cccc	.	.	.
16ffJJ	.	32dddd	.	.	.
.	.	32ccccJJJ	8ccccJ	.	.
8ryy	8fJ)	8ryy	.	8ffff\J)	.
.	.	.	32ryy	.	.
*	*	*X8va	*X8va	*X8va	*
*	*	*v	*v	*v	*
*clefF4	*	*	*
=17	=17	=17	=17
*	*	*^	*
!	!	!LO:TX:a:i:t=loco.	!	!
*ped	*	*	*	*
(>16eLL	8GL	8g\L	(>16dd/KL	.
16cJJ	.	.	8.ccJ	.
*Xped	*	*	*	*
8rcyy	8CJ)	8ggJ)	.	.
*ped	*	*	*	*
(>16e-XLL	8GL	8g\L	(>16dd/KL	.
16cJJ	.	.	8.ccJ	.
*Xped	*	*	*	*
8rcyy	8CJ)	8ggJ)	.	.
*ped	*	*	*	*
(>16fLL	8cL	8a\L	(>16dd/KL	.
16e-JJ	.	.	8.ccJ	.
*Xped	*	*	*	*
8rcyy	8FJ)	8aaJ)	.	.
=18	=18	=18	=18	=18
*ped	*	*	*	*
(>16e-XLL	8FL	8f\L	(>16cc/KL	.
16B-JJ	.	.	8.b-J	.
*Xped	*	*	*	*
8rdyy	8BB-J)	8bb-J)	.	.
*ped	*	*	*	*
(>16dLL	8FL	8f\L	(>/16ccKL	.
16B-JJ	.	.	8.b-J	.
8rdyy	8BB-J)	8ffJ)	.	.
(>16dLL	8FL	8f\L	(>16cc/KL	.
16B-JJ	.	.	8.b-J	.
*Xped	*	*	*	*
8rdyy	8BB-J)	8ffJ)	.	.
=19	=19	=19	=19	=19
!!linebreak:original
*ped	*	*	*	*
(>16d-XLL	8FL	8f\L	(>16cc/KL	.
16B-JJ	.	.	8.b-J	.
*Xped	*	*	*	*
8rcyy	8BB-J)	8ffJ)	.	.
*ped	*	*	*	*
(>16d-LL	8FL	8f\L	(>16cc/KL	.
16B-JJ	.	.	8.b-J	.
*Xped	*	*	*	*
8rcyy	8BB-J)	8ffJ)	.	.
*ped	*	*	*	*
(>16d-LL	8E-XL	8g\L	(>16cc/KL	.
16B-JJ	.	.	8.b-J	.
*Xped	*	*	*	*
8rAyy	8EE-XJ)	8ggJ)	.	.
=20	=20	=20	=20	=20
*ped	*	*	*	*
(>16d-XLL	8E-XL	8e-X\L	(>/16b-KL	.
16A-XJJ	.	.	8.a-XJ	.
*Xped	*	*	*	*
8rByy	8AA-XJ)	8aa-XJ)	.	.
*ped	*	*	*	*
(>16cLL	8E-L	8e-\L	(>/16b-KL	.
16A-JJ	.	.	8.a-J	.
8rAyy	8AA-J)	8ee-XJ)	.	.
(>16cLL	8E-L	8e-\L	(>16b-/KL	.
16A-JJ	.	.	8.a-J	.
*Xped	*	*	*	*
8rByy	8AA-J)	8ee-J)	.	.
=21	=21	=21	=21	=21
!	!	!	!	!LO:HP:a
*ped	*	*	*	*
(>16cLL	8E-XL	8e-X\L	(>16b-X/KL	<
16A-XJJ	.	.	8.a-XJ	.
8rAyy	8GGJ)	8ee-XJ)	.	.
(>16cLL	8E-L	8e-\L	(>/16b-KL	.
16A-JJ	.	.	8.a-J	.
*Xped	*	*	*	*
8rcyy	8GGJ)	8ee-J)	.	.
*ped	*	*	*	*
(>16cLL	8E-L	8e-\L	(>16b-/KL	.
16A-JJ	.	.	8.a-J	.
*Xped	*	*	*	*
8rdyy	8GGJ)	8ffJ)	.	[[
=22	=22	=22	=22	=22
!!linebreak:original
!	!	!	!	!LO:HP:a
*ped	*	*	*	*
(>16cLL	8DnL	8e-X\L	(>/16a-XKL	>p
16GJJ	.	.	8.gJ	.
*Xped	*	*	*	*
8rAyy	8FFJ)	8ee-XJ)	.	.
*ped	*	*	*	*
(>16BnLL	8DL	8d\L	(>/16a-KL	.
16GJJ	.	.	8.gJ	.
8rAyy	8GGJ)	8ddJ)	.	.
(>16BLL	8DL	8d\L	(>/16a-KL	.
16GJJ	.	.	8.gJ	.
*Xped	*	*	*	*
8rcyy	8GGJ)	8ddJ)	.	]]
=23	=23	=23	=23	=23
*ped	*	*	*	*
(>16cLL	8E-XL	8e-X\L	(>/16b-KL	p
16A-XJJ	.	.	8.a-XJ	.
8rcyy	8GGJ)	8ee-XJ)	.	.
*clefG2	*	*	*	*
(>16ccLL	8e-XL	8ee-\L	(>/16bb-KL	<
16a-XJJ	.	.	8.aa-XJ	.
*Xped	*	*	*	*
8raayy	8GJ)	8eee-XJ)	.	.
*ped	*	*	*	*
(>16ccLL	8e-L	8ee-\L	(>16bb-/KL	.
16a-JJ	.	.	8.aa-J	.
*Xped	*	*	*	*
8rffyy	8GJ)	8fffJ)	.	.
=24	=24	=24	=24	=24
*ped	*	*	*	*
(>16ccLL	8dnL	8ee-X\L	(>16aa-X/KL	.
16gJJ	.	.	8.ggJ	.
*Xped	*	*	*	*
8raayy	8GJ)	8eee-XJ)	.	[
*ped	*	*	*	*
(>16bnLL	8dL	8dd\L	(>/16aa-KL	.
16gJJ	.	.	8.ggJ	>
*Xped	*	*	*	*
8rffyy	8GJ)	8dddJ)	.	.
*ped	*	*	*	*
(>16bLL	8dL	8dd\L	(>16aa-/KL	.
16gJJ	.	.	8.ggJ	.
*Xped	*	*	*	*
8rffyy	8GJ)	8dddJ)	.	]]
=25	=25	=25	=25	=25
!!linebreak:original
*ped	*	*	*	*
(>16bnLL	8dL	8dd\L	(>16gg/KL	.
16f#XJJ	.	.	8.ff#XJ	.
*Xped	*	*	*	*
8rddyy	8F#XJ)	8dddJ)	.	.
*clefF4	*	*	*	*
*ped	*	*	*	*
!	!	!	!	!LO:HP:a
(>16BnLL	8DL	8d\L	(>/16gKL	<
16F#XJJ	.	.	8.f#XJ	.
*Xped	*	*	*	*
8rByy	8FF#XJ)	8ddJ)	.	.
*ped	*	*	*	*
(>16c#XLL	8DL	8e\L	(>/16gKL	.
16F#JJ	.	.	8.f#J	.
*Xped	*	*	*	*
8rByy	8FF#J)	8eeJ)	.	[[
=26	=26	=26	=26	=26
!	!	!	!	!LO:HP:a
*ped	*	*	*	*
(>16BnLL	8C#XL	8d\L	(>16g/KL	>
16F#XJJ	.	.	8.f#XJ	.
*Xped	*	*	*	*
8rdyy	8FF#XJ)	8ddJ)	.	.
*ped	*	*	*	*
(>16A#XLL	8C#L	8c#X\L	(>/16gKL	.
16F#JJ	.	.	8.f#J	.
8rcyy	8FF#J)	8cc#XJ)	.	.
(>16A#LL	8C#L	8c#\L	(>16g/KL	.
16F#JJ	.	.	8.f#J	.
*Xped	*	*	*	*
8rcyy	8FF#J)	8cc#J)	.	]]
=27	=27	=27	=27	=27
*ped	*	*	*	*
(>16GLL	8DL	(>16gKL	8BnL	.
16F#XJJ	.	8.f#XJ	.	.
8rdyy	8FF#XJ)	.	8bnJ)	.
(>16GLL	8DL	(>16gKL	8BL	.
16F#JJ	.	8.f#J	.	.
*Xped	*	*	*	*
8rdyy	8FF#J)	.	8bJ)	.
*ped	*	*	*	*
!	!	!LO:TX:a:i:t=ritenuto. - - - - - - - - - 	!	!
(>16GLL	8EL	(>16gKL	8c#XL	.
16F#JJ	.	8.f#J	.	.
*Xped	*	*	*	*
8rByy	8FF#J)	.	8cc#XJ)	.
=28	=28	=28	=28	=28
!!pagebreak:original
*ped	*	*	*	*
(>16GLL	8DL	(>16gKL	8BnL	.
16F#XJJ	.	8.f#XJ	.	.
*Xped	*	*	*	*
8rByy	8FF#XJ)	.	8bnJ)	.
*ped	*	*	*	*
(>16GLL	8C#XL	(>16gKL	8A#XL	.
16F#JJ	.	8.f#J	.	.
*Xped	*	*	*	*
!	!LO:TX:a:t= w oryginale bez kasownika przy b	!	!	!

8rByy	8FF#J)	.	8a#XJ)	.
*ped	*	*	*	*
(>16F#LL	8C#L	(>16g#XKL	8A#L	.
16EJJ	.	8.f#J	.	.
*Xped	*	*	*	*
8rByy	8FF#J)	.	8a#J)	.
*v	*v	*	*	*
*	*v	*v	*
==29	==29	==29
*k[f#c#g#d#a#]	*k[f#c#g#d#a#]	*
*	*^	*
!	!LO:TX:a:B:t=in Tempo.	!	!
*ped	*	*	*
(</16D#LL	8B\L	(>/16g#KL	.
16FF#J	.	8.f#J	.
*Xped	*	*	*
8BBBJ)	8b^J)	.	.
*ped	*	*	*
(>\16D#LL	16c#\KL	(>8F<#L	.
16FF#J	8.BJ	.	.
*Xped	*	*	*
8BBBJ)	.	8f#^>J)	.
*ped	*	*	*
(>\16D#LL	16g#\KL	(>8B/L	.
16FF#J	8.f#J	.	.
*Xped	*	*	*
8BBBJ)	.	8b^>J)	.
=30	=30	=30	=30
*ped	*	*	*
(>16E\LL	16g#\KL	(>8c#/L	.
16FF#J	8.f#J	.	.
*Xped	*	*	*
8BBBJ)	.	8cc#^>J)	.
*ped	*	*	*
(>16E\LL	16d#\KL	(>8F#</L	.
16FF#J	8.c#J	.	.
*Xped	*	*	*
8BBBJ)	.	8f#^>J)	.
*ped	*	*	*
(>16E\LL	16g#\KL	(>8c#/L	.
16FF#J	8.f#J	.	.
*Xped	*	*	*
8BBBJ)	.	8cc#^>J)	.
=31	=31	=31	=31
!!linebreak:original
*ped	*	*	*
(<16D#LL	16g#\KL	8d#/L	.
16FF#J	8.f#J	.	.
8BBBJ)	.	(>8dd#^>J	.
(<16D#LL	16g#\KL	8B/L	.
16FF#J	8.f#J	.	.
*Xped	*	*	*
8BBBJ)	.	8b^>J	.
*ped	*	*	*
(<16E#XLL	16dd#\KL	8g#/L)	.
16BBJ	8.cc#J	.	.
*Xped	*	*	*
8CC#J))	.	8gg#^>J	.
=32	=32	=32	=32
*^	*	*	*
*ped	*	*	*	*
(>16A#LL	8C#L	(>8c#L	16g#KL	.
16EnJJ	.	.	8.f#J	.
8reyy	8FF#J)	8cc#^J)	.	.
(>16eLL	8F#L	(>16dd#KL	8f#L	.
16A#JJ	.	8.cc#J	.	.
8reyy	8C#J)	.	8ff#^>J)	.
*clefG2	*	*	*	*
(>16a#LL	8c#L	(>16ddd#KL	8ff#L	.
16eJJ	.	8.ccc#J	.	.
*Xped	*	*	*	*
8rbbyy	8F#J)	.	8fff#^>J)	.
*v	*v	*	*	*
*clefF4	*	*	*
=33	=33	=33	=33
(>16D#\LL	(>16g#\KL	8B/L	.
16FF#J	8.f#J	.	.
8BBBJ)	.	8b^>J)	.
(>\16D#LL	16c#\KL	(>8F#<L	.
16FF#J	8.BJ	.	.
8BBBJ)	.	8f#^>J)	.
(>\16D#LL	16g#\KL	(>8B/L	.
16FF#J	8.f#J	.	.
8BBBJ)	.	8b^>J)	.
=34	=34	=34	=34
!!linebreak:original
(16E\LL	16g#\KL	(>8c#/L	.
16FF#J	8.f#J	.	.
8BBBJ)	.	8cc#^>J)	.
(16E\LL	16d#\KL	(>8F#</L	.
16FF#J	8.c#J	.	.
8BBBJ)	.	8f#^>J)	.
(16E\LL	16g#\KL	(>8c#/L	.
16FF#J	8.f#J	.	.
8BBBJ)	.	8cc#^>J)	.
=35	=35	=35	=35
(16D#\LL	(>8d#L	16g#KL	.
16FF#J	.	8.f#J	.
8BBBJ)	8dd#^J)	.	.
(>\16E#XLL	(>8d#L	16a#KL	.
16BBJ	.	8.g#J	.
8CC#J)	8dd#^J)	.	.
(16A#LL	(>8c#L	16g#KL	.
16EnJ	.	8.f#J	.
8FF#J)	8cc#^J)	.	.
=36	=36	=36	=36
(16D#\LL	(>8BL	16g#KL	.
16FF#J	.	8.f#J	.
8BBBJ)	8b^J)	.	.
16d#LL	(>16gg#KL	8bL	.
16F#J	8.ff#J	.	.
8BBJ	.	8bb^>J)	.
*clefG2	*	*	*
*	*8va	*8va	*
(>\16dd#LL	(>16ggg#KL	8bbL	.
16f#J	8.fff#J	.	.
8BJ)	.	8bbb^>J)	.
*	*X8vay	*X8va	*
*clefF4	*	*	*
=37	=37	=37	=37
!!linebreak:original
!	!	!	!LO:HP:a
!	!	!LO:TX::i:a:t=loco.	!
(16A#\LL	(<8c#L	16g#KL	<
16C#J	.	8.f#J	.
8FF#J)	8cc#J)	.	.
(>16An\LL	(<8c#L	16g#KL	.
16C#J	.	8.f#J	.
8FF#J)	8cc#J)	.	.
(>\16ALL	(<8d#L	16g#KL	.
16BBJ	.	8.f#J	.
8FF#J)	8dd#J)	.	.
=38	=38	=38	=38
(>\16AnLL	(<8eL	16anKL	.
16BBJ	.	8.g#J	.
!	!	!	!LO:HP:a
8EEJ)	8eeJ)	.	[>
(16G#\LL	(<8BL	16f#KL	.
16BBJ	.	8.eJ	.
8EEJ))	8bJ)	.	.
(16G#\LL	(<8BL	16f#KL	.
16BBJ	.	8.eJ	.
8EEJ)	8bJ)	.	]
=39	=39	=39	=39
!	!	!	!LO:HP:a
(16Gn\LL	(<8BL	16f#KL	<
16BBJ	.	8.eJ	.
8EEJ)	8bJ)	.	.
(>\16GLL	(<8BL	16f#KL	.
16BBJ	.	8.eJ	.
8EEJ)	8bJ)	.	.
(>16G\LL	(<8c#L	16f#KL	.
16AAnJ	.	8.eJ	.
8EEJ)	8cc#J)	.	[[
=40	=40	=40	=40
!!linebreak:original
(>\16GnLL	(<8dnL	16gnKL	.
16AAnJ	.	8.f#J	.
8DDnJ)	8ddnJ)	.	.
!	!	!	!LO:HP:a
(>\16F#LL	(<8AnL	16eKL	>
16AAJ	.	8.dJ	.
8DDJ)	8anJ)	.	.
16F#\LL	(<8AL	16eKL	.
16AAJ	.	8.dJ	.
8DDJ	8aJ)	.	]]
=41	=41	=41	=41
*^	*	*	*
4rdyy	(>16F#LL	16dn\KL	(>8An<L	.
.	16AAnJ	8.c#J	.	.
.	8CC#J)	.	8anJ)	.
!	!	!	!	!LO:HP:a
(>16f#LL	8AnyL	8aL\	(>16ddnKL/	<
16c#JJ	.	.	8.cc#J	.
8reyy	8C#J)	8aanJ)	.	.
(>16g#XLL	8AL	8bL\	(>16ddKL/	.
16c#JJ	.	.	8.cc#J	.
8reyy	8C#J)	8bbJ)	.	.
=42	=42	=42	=42	=42
(>16f#LL	8G#L	8an\L	(>/16ddnKL	.
16c#JJ	.	.	8.cc#J	.
8rdyy	8C#J)	8aanJ)	.	[
!	!	!	!	!LO:HP:a
(>16e#XLL	8G#L	8g#\L	(>/16ddKL	>
16c#JJ	.	.	8.cc#J	.
8rByy	8C#J)	8gg#J)	.	.
(>16e#LL	8G#L	8g#\L	(>16dd/KL	.
16c#JJ	.	.	8.cc#J	.
8rdyy	8C#J)	8gg#J)	.	]]
=43	=43	=43	=43	=43
!!pagebreak:original
(>16f#LL	8AnL	8an\L	(>/16ddnKL	p
16c#JJ	.	.	8.cc#J	.
8rAyy	8C#J)	8aanJ)	.	.
*clefG2	*	*	*	*
!	!	!	!	!LO:HP:a
*	*	*8va	*8va	*
(>16ff#LL	8anL	8aa\L	(>/16ddd#KL	<
16cc#JJ	.	.	8.ccc#J	.
8rffyy	8c#J)	8aaa#J)	.	.
(>16gg#LL	8aL	8bb\L	(>/16ddd#KL	.
16cc#JJ	.	.	8.ccc#J	.
8raayy	8c#J)	8bbbJ)	.	.
=44	=44	=44	=44	=44
(>16ff#LL	8g#L	8aan\L	(>/16dddnKL	[
!	!	!	!	!LO:HP:a
16cc#JJ	.	.	8.ccc#J	>
8rffyy	8c#J)	8aaanJ)	.	.
(>16ee#XLL	8g#L	8gg#\L	(>/16dddKL	.
16cc#JJ	.	.	8.ccc#J	.
8ryy	8c#J)	8ggg#J)	.	.
(>16ee#LL	8g#L	8gg#\L	(>16ddd/KL	.
16cc#JJ	.	.	8.ccc#J	.
8ryy	8c#J)	8ggg#J)	.	]
*v	*v	*	*	*
*	*v	*v	*
*clefF4	*	*
*k[]	*k[]	*
==45	==45	==45
*k[b-]	*k[b-]	*
*kXcancel	*kXcancel	*
*^	*^	*
!	!	!LO:TX:i:a:t=dimin. - -	!	!
*clefG2	*	*	*	*
(>16ffLL	8a-XL	8aa-X\L	(>/16ddd-XKL	.
16ccJJ	.	.	8.cccJ	.
8rcccyy	8cJ)	8aaa-XJ)	.	.
*	*	*X8va	*X8va	*
*clefF4	*	*	*	*
!	!	!LO:TX:a:t=kreski przerywane do konca taktu 47	!LO:TX:i:a:t=loco.	!
(>16fLL	8A-XL	8a-y\L	(>/16dd-yKL	.
16cJJ	.	.	8.ccJ	.
8reyy	8CJ)	8aa-J)	.	.
(>16gLL	8A-L	8b-\L	(>16dd-/KL	.
16cJJ	.	.	8.ccJ	.
8rdyy	8CJ)	8bb-J)	.	.
=46	=46	=46	=46	=46
!!linebreak:original
(>16fLL	8GL	8a-X\L	(>/16dd-XKL	.
16cJJ	.	.	8.ccJ	.
8rcyy	8CJ)	8aa-XJ)	.	.
(>16enLL	8GL	8g\L	(>16dd-/KL	.
16cJJ	.	.	8.ccJ	.
8rcyy	8CJ)	8ggJ)	.	.
(>16eLL	8GL	8g\L	(>16dd-/KL	.
16cJJ	.	.	8.ccJ	.
8rdyy	8CJ)	8ggJ)	.	.
=47	=47	=47	=47	=47
(>16dnLL	8GL	(>16ddnKL	8fL	.
16cJJ	.	8.ccJ	.	.
8rdyy	8CJ)	.	8ffJ)	.
(>16dLL	8GL	(>16ddKL	8fL	.
16cJJ	.	8.ccJ	.	.
8rdyy	8CJ)	.	8ffJ)	.
!	!	!LO:TX:i:a:t=ritenuto.	!	!
(>16eLL	8GL	(>16ddKL	8gL	.
16cJJ	.	8.ccJ	.	.
8rcyy	8CJ)	.	8ggJ)	.
=48	=48	=48	=48	=48
(>16dLL	8GL	(>16ddKL	8fL	.
16cJJ	.	8.ccJ	.	.
8rcyy	8CJ)	.	8ffJ)	.
(>16dLL	8GL	(>16ddKL	8eL	.
16cJJ	.	8.ccJ	.	.
8rdyy	8CJ)	.	8eeJ)	.
(>16cLL	8GL	(>16ddKL	8eL	.
16B-JJ	.	8.ccJ	.	.
8rcyy	8CJ)	.	8eeJ)	.
=49	=49	=49	=49	=49
!!linebreak:original
!	!	!LO:TX:B:a:t=in Tempo.	!	!
(>16ALL	8CL	(>16ddLL	8fL	f
16FJJ	.	16ccJJ	.	.
8rAyy	8FFJ)	8rdddyy	8ff'J)	fz
(>16ALL	8CL	(>16gLL	8cL	.
16FJJ	.	16fJJ	.	.
8rcyy	8FFJ)	8rdddyy	8cc'J)	fz
(>16ALL	8CL	(>16ddLL	8fL	.
16FJJ	.	16ccJJ	.	.
8rAyy	8FFJ)	8rdddyy	8ff'J)	fz
=50	=50	=50	=50	=50
(>16B-LL	8CL	(>16ddLL	8gL	.
16EJJ	.	16ccJJ	.	.
8rAyy	8FFJ)	8rfffyy	8gg'J)	fz
(>16B-LL	8CL	(>16aLL	8cL	.
16EJJ	.	16gJJ	.	.
8rGyy	8FFJ)	8rbbyy	8cc'J)	fz
(>16B-LL	8CL	(>16ddLL	8gL	.
16EJJ	.	16ccJJ	.	.
8rGyy	8FFJ)	8reeeyy	8gg'J)	fz
=51	=51	=51	=51	=51
(>16ALL	8CL	(>16ddLL	8aL	.
16FJJ	.	16ccJJ	.	fz
8rGyy	8FFJ)	8rfffyy	8aa'J)	.
(>16ALL	8DL	(>16ddLL	8fL	.
16FJJ	.	16ccJJ	.	.
8rFyy	8FFJ)	8rfffyy	8ff'J)	fz
(>16BnLL	8DL	(>16aaLL	8ddL	.
16FJJ	.	16ggJJ	.	.
8rGyy	8GGJ)	8rbbbyy	8ddd'J)	fz
=52	=52	=52	=52	=52
!!linebreak:original
(>16eLL	8GL	(>16ddLL	8gL	.
16B-JJ	.	16ccJJ	.	.
8rgyy	8CJ)	8rfffyy	8gg'J)	fz
*clefG2	*	*	*	*
(>16b-LL	8cL	(>16aaLL	8ccL	.
16eJJ	.	16ggJJ	.	.
8rcccyy	8GJ)	8raaayy	8ccc'J)	fz
*	*	*8va	*8va	*
(>16eeLL	8gL	(>16aaaLL	8cccL	.
16b-JJ	.	16gggJJ	.	fz
8rfffyy	8cJ)	8rdddddyy	8cccc'J)	.
*	*	*X8va	*X8va	*
*clefF4	*	*	*	*
=53	=53	=53	=53	=53
!	!	!LO:TX:i:a:t=loco.	!	!
(>16ALL	8CL	(>16ddLL	8fL	.
16FJJ	.	16ccJJ	.	.
8rdyy	8FFJ)	8reeeyy	8ff'J)	fz
(>16ALL	8CL	(>16gLL	8cL	.
16FJJ	.	16fJJ	.	.
8rcyy	8FFJ)	8rbbyy	8cc'J)	fz
(>16ALL	8CL	(>16ddLL	8fL	.
16FJJ	.	16ccJJ	.	.
8rcyy	8FFJ)	8reeeyy	8ff'J)	fz
=54	=54	=54	=54	=54
(>16B-LL	8CL	(>16ddLL	8gL	.
16EJJ	.	16ccJJ	.	.
8rcyy	8FFJ)	8rfffyy	8gg'J)	fz
(>16B-LL	8CL	(>16aLL	8cL	.
16EJJ	.	16gJJ	.	.
8rcyy	8FFJ)	8rcccyy	8cc'J)	fz
(>16B-LL	8CL	(>16ddLL	8gL	.
16EJJ	.	16ccJJ	.	.
8rdyy	8FFJ)	8reeeyy	8gg'J)	fz
=55	=55	=55	=55	=55
!!linebreak:original
(>16ALL	8CL	(>16ddLL	8aL	.
16FJJ	.	16ccJJ	.	.
8rAyy	8FFJ)	8rfffyy	8aa'J)	fz
(>16BnLL	8DL	(16eeLL	8aL	.
16FJJ	.	16ddJJ	.	.
8rAyy	8GGJ)	8reeeyy	8aa'J)	fz
(>16eLL	8GL	(>16ddLL	8gL	.
16B-XJJ	.	16ccJJ	.	.
8rByy	8CJ)	8rfffyy	8gg'J)	fz
=56	=56	=56	=56	=56
(>16ALL	8CL	(>16ddLL	8fL	.
16FJJ	.	16ccJJ	.	.
8rGyy	8FFJ)	8rfffyy	8ff'J)	fz
*clefG2	*	*	*	*
*ped	*	*	*	*
(>16aLL	8cL	(>16ggLL	8ccL	.
16fJJ	.	16ffJJ	.	.
*Xped	*	*	*	*
8rddyy	8FJ)	8rbbbyy	8ccc'J)	fz
*ped	*	*	*	*
(>16b-LL	8cL	(>16aaLL	8ccL	.
16eJJ	.	16ggJJ	.	.
*Xped	*	*	*	*
8rddyy	8FJ)	8rbbbyy	8ccc'J)	fz
=57	=57	=57	=57	=57
*ped	*	*	*	*
(>16aLL	8cL	(>16ggLL	8ccL	.
16fJJ	.	16ffJJ	.	.
8raayy	8FJ)	8rbbbyy	8ccc'J)	.
*	*	*	*8va	*
(>16aaLL	8ccL	(>16gggLL	8cccL	.
16ffJJ	.	16fffJJ	.	.
*Xped	*	*	*	*
8rggyy	8fJ)	8ryy	8cccc'J)	.
*ped	*	*	*	*
(>16bb-LL	8ccL	(>16aaaLL	8cccL	.
16eeJJ	.	16gggJJ	.	.
*Xped	*	*	*	*
8rggyy	8fJ)	8raaaayy	8cccc'J)	.
=58	=58	=58	=58	=58
!!pagebreak:original
*ped	*	*	*	*
(>16aaLL	8ccL	(>16gggLL	8cccL	.
16ffJJ	.	16fffJJ	.	.
8raayy	8fJ)	8ryy	8cccc'J)	.
*	*	*	*X8va	*
!	!	!LO:TX:a:i:t=loco.	!	!
(>16aLL	8cL	(>16ggLL	8ccL	.
16fJJ	.	16ffJJ	.	.
*Xped	*	*	*	*
8rbbyy	8FJ)	8raaayy	8ccc^'J)	.
*ped	*	*	*	*
(>16b-LL	8cL	(>16aaLL	8ccL	.
16eJJ	.	16ggJJ	.	.
*Xped	*	*	*	*
8raayy	8FJ)	8rbbbyy	8ccc^'J)	.
=59	=59	=59	=59	=59
*ped	*	*	*	*
(>16aLL	8cL	(>16ggLL	8ccL	.
16fJJ	.	16ffJJ	.	.
8rbbyy	8FJ)	8raaayy	8ccc^'J)	.
*	*	*	*8va	*
(>16aaLL	8ccL	(>16gggLL	8cccL	.
16ffJJ	.	16fffJJ	.	.
*Xped	*	*	*	*
8rcccyy	8fJ)	8rffffyy	8cccc^'J)	.
*ped	*	*	*	*
(>16bb-LL	8ccL	(>16aaaLL	8cccL	.
16eeJJ	.	16gggJJ	.	.
*Xped	*	*	*	*
8rcccyy	8fJ)	8rggggyy	8cccc^'J)	.
=60	=60	=60	=60	=60
*ped	*	*	*	*
(>16aaLL	8ccL	(>16gggLL	8cccL	.
16ffJJ	.	16fffJJ	.	.
*Xped	*	*	*	*
8rcccyy	8f'J)	8rggggyy	8cccc^'J)	.
*ped	*	*	*	*
(>16aaLL	8bnL	(>16gggLL	8bbnL	.
16dd#XJJ	.	16fff#XJJ	.	.
*Xped	*	*	*	*
8rcccyy	8Bn'J)	8rggggyy	8bbbn'J)	.
*ped	*	*	*	*
(>16gg#XLL	8bL	(>16fffnLL	8bbL	.
16ddnJJ	.	16eeeJJ	.	.
*Xped	*	*	*	*
8rdddyy	8e'J)	8rggggyy	8bbb'J)	.
=61	=61	=61	=61	=61
!!linebreak:original
!	!	!	!	!LO:HP:a
*ped	*	*	*	*
(>16ggnLL	8aL	(>16fffLL	8aaL	>
16cc#XJJ	.	16eeeJJ	.	.
*Xped	*	*	*	*
8rbbyy	8A'J)	8rggggyy	8aaa'J)	.
*ped	*	*	*	*
(>16ddLL	8gL	(>16eeeLL	8aaL	.
16b-XJJ	.	16dddJJ	.	.
*Xped	*	*	*	*
8raayy	8B-'J)	8rggggyy	8aaa'J)	.
*ped	*	*	*	*
(>16eeLL	8gL	(>16dddLL	8ggL	.
16b-JJ	.	16cccJJ	.	.
*Xped	*	*	*	*
8rffyy	8cn'J)	8rggggyy	8ggg'J)	]
=62	=62	=62	=62	=62
*ped	*	*	*	*
(>16aLL	8cL	(>16dddLL	8ffL	.
16fJJ	.	16cccJJ	.	.
*Xped	*	*	*	*
8rggyy	8FJ)	8rccccyy	8fff'J)	.
*	*	*	*X8va	*
*clefF4	*	*	*	*
!	!	!LO:TX:i:a:t=loco.	!	!
(>16aLL	8BnL	(>16ggLL	8bnL	.
16d#XJJ	.	16ff#XJJ	.	.
8rdyy	8BBnJ)	8rfffyy	8bbn'J)	.
!	!	!	!	!LO:HP:a
(>16g#XLL	8BL	(>16ffnLL	8bL	>
16dnJJ	.	16eeJJ	.	.
8rcyy	8EJ)	8rgggyy	8bb'J)	.
=63	=63	=63	=63	=63
(>16gnLL	8AL	(>16ffLL	8aL	.
16c#XJJ	.	16eeJJ	.	.
8reyy	8AA'J)	8rfffyy	8aa'J)	.
(>16dLL	8GL	(>16eeLL	8aL	.
16B-XJJ	.	16ddJJ	.	.
8rfyy	8BB-'J)	8rgggyy	8aa'J)	.
(>16eLL	8GL	(>16ddLL	8gL	.
16B-JJ	.	16ccJJ	.	.
8rfyy	8Cn'J)	8rdddyy	8gg'J)	]
=64	=64	=64	=64	=64
!!linebreak:original
!	!	!	!	!LO:HP:a
*ped	*	*	*	*
(>16ALL	8CL	(>16ddLL	8fL	<
16FJJ	.	16ccJJ	.	.
8rByy	8FFJ)	8raaayy	8ff'J)	.
(>16ALL	8CL	(>16ggLL	8ccL	.
16FJJ	.	16ffJJ	.	.
*Xped	*	*	*	*
8rcyy	8FFJ)	8rccccyy	8ccc'J)	.
*ped	*	*	*	*
(>16B-LL	8CL	(>16aaLL	8ccL	.
16EJJ	.	16ggJJ	.	.
*Xped	*	*	*	*
8rAyy	8FFJ)	8rgggyy	8ccc'J)	[
=65	=65	=65	=65	=65
!	!	!	!	!LO:HP:a
*ped	*	*	*	*
!	!	!	!LO:TX:i:t=dimin. - -	!
(>16ALL	8CL	(>16ggLL	8ccL	>
16FJJ	.	16ffJJ	.	.
8rAyy	8FFJ)	8rbbbyy	8ccc'J)	.
!	!	!	!LO:TX:t=kreski do konca 67 taktu	!
(>16ALL	8CL	(>16ggLL	8ccL	.
16FJJ	.	16ffJJ	.	.
*Xped	*	*	*	*
8rAyy	8FFJ	8reeeeyy	8ccc'J)	.
*ped	*	*	*	*
16B-LL)	8CL	(>16aaLL	8ccL	.
16EJJ	.	16ggJJ	.	.
*Xped	*	*	*	*
8rcyy	8FFJ)	8rbbbyy	8ccc'J)	.
=66	=66	=66	=66	=66
*ped	*	*	*	*
(>16ALL	8CL	(>16ggLL	8ccL	.
16FJJ	.	16ffJJ	.	.
8rByy	8FFJ)	8rccccyy	8ccc'J)	.
2rgyy	(>4FFF'	(>16ggLL	8ccL	.
.	.	16ffJJ	.	.
.	.	8rbbbyy	8ccc'J)	.
.	4A 4C 4FF	(>16ggLL	8ccL	.
.	.	16ffJJ	.	.
.	.	8rddddyy	8ccc'J)	]
*v	*v	*	*	*
=67	=67	=67	=67
!!linebreak:original
4a 4c 4F)	(>32ggLLL	8ccL	.
.	32ff	.	.
.	32gg	.	.
.	32ffJJJ	.	.
.	8rddddyy	8cccJ)	.
(>4FFF'	(>32ggLLL	8ccL	.
.	32ff	.	.
.	32gg	.	.
.	32ffJJJ	.	.
.	8reeeeyy	8cccJ)	.
4A 4C 4FF	(>32ggLLL	8ccL	.
.	32ff	.	.
.	32gg	.	.
.	32ffJJJ	.	.
.	8reeeeyy	8cccJ)	.
=68	=68	=68	=68
!	!LO:TX:i:t=smorz. - -	!	!
4a 4c 4F)	8cc\L	(>32gg/LLL	.
.	.	32ff	.
.	.	32gg	.
.	.	32ffJJJ	.
!	!	!LO:TX:t=kreski do konca taktu	!
.	8cccJ	32gg/LLL	.
.	.	32ff	.
.	.	32gg	.
.	.	32ffJJJ	.
4r	8cc\L	32gg/LLL	.
.	.	32ff	.
.	.	32gg	.
.	.	32ffJJJ	.
.	8cccJ	32gg/LLL	.
.	.	32ff	.
.	.	32gg	.
.	.	32ffJJJ	.
4r	8cc\L	32gg/LLL	.
.	.	32ff	.
.	.	32gg	.
.	.	32ffJJJ	.
.	8cccJ	32gg/LLL	.
.	.	32ff	.
.	.	32gg	.
.	.	32ffJJJ)	.
*	*v	*v	*
=69	=69	=69
!!linebreak:original
2.rF	(>8.ffTL 8.cc	.
.	16eeJk	.
.	32ffLLL	.
.	32gg#X	.
.	32bb-	.
.	32aaJJJ	.
.	32bbnLLL	.
.	32ddd	.
.	32ccc	.
.	32eeeJJJ	.
*	*8va	*
.	32gggnLLL	.
.	32fff	.
.	32ggg#X	.
.	32bbb-XJJJ	.
.	32aaaLLL	.
.	32bbbn	.
.	32dddd	.
.	32ccccJJJ	.
=70	=70	=70
*	*Xped	*
4r	4ffff	.
*	*X8va	*
4r	4r	.
!	!LO:TX:i:a:t=loco.	!
4C\ 4CC\	4a 4c 4A<)	.
=71	=71	=71
*ped	*	*
2.FF 2.FFF	2.a 2.f 2.A<	.
=72	=72	=72
!LO:TX:B:t=FINE.	!	!
2.C\;< 2.FF\	2.a;> 2.f 2.A<	.
==	==	==
*-	*-	*-
!!title: @{OTL}; @{OPS} @{ONM} publisher: @{OCL}
!!!RDF**kern: > = above
!!!RDF**kern: < = below
!!!RDF**kern: N = linked
!!!RDF**dynam: > = "dimin.", fontstyle= "italic"
!!!ENC: Jędrzej Mróz
!!!END: 2018-09-27
!!!EED: Wojciech Jakubiak-Danek
!!!EST: revision finished 2018-10-10